!!!OTL: Des Burschen Tracht (204a), S.445
!!!id: T0387
**kern
*clefG2
*k[]
*G:
{16g
=1
16g
4cc
8cc
8g
8g
8g
=2
4a
8a
4.g}
=3
{4cc
8cc
4b
8b
=4
8a
8b
8a
4g}
=5
{8cc
=6
8cc
8b
8cc
4.dd}
=7
{4cc
16cc
16cc
4b
8b
=8
8a
8b
8a
4.dd}
=9
{4cc
16cc
16cc
4b
8b
=10
8a
8b
8a}
4.r
==
*-
!!!minrhy: 16
!!!meters: 6/8 ]  ZZ[5
!!!cut: Des Burschen Tracht (204a), S.445
!!!reg: Luxemburg
!!!trd: Singendes Volk, Esch-Alzette, 1937 posth.
!!!rhy1:   X__X_X_X_X_  X__X_X__.   (x2)
!!!rhy2: X__X_X__X_  X_X_X_X__
!!!key: T0387  16  G 6/8 ]  ZZ[5
!!!mod: PENTATONIK DUR ?]  AMBITUS[5
!!!kad: 11552
!!!akz: 4121_4321_45_4325_432_
!!!fot: 'a__b__c__bw_bv_
!!!for: 'a__b__c__d__d__
!!!fok: '\__\__/__Va_\__
!! PHRAS[VORWIEGEND VOLLTAKTIG]
!!!fkt: Tanz-, Spiellied
!!!bem: Heffingen, fff Marie Berchem, 1906
!! THILL; Mathias
!! PR[48] 2K[0] 2G[9] 3K[2] 3G[2] 4A[2] 4Ü[0] 5A[0] 6K[0] 6G[0]
!! 7K[2] 7G[0] 8A[0] MEHR[0] SI[18] ABS[44] SR[9] SP[9]
!! ST[19] 2k[7] 2g[25] 3k[0] 3g[0] 4d[2] 4ü[0] 5d[0] 6k[0] 6g[0]
!! 7k[0] 7g[0] 8d[0] mehr[0] si[34] dm[-16] sr[32] sp[2]
!! 1F[27] 2F[44] 3F[18] 4F[0] LF[0] 2P[0] 3P[11] 4P[0] TRI[0] DF[4] AB[45]
!! TF[0] U3K[0] U3[0] U4[0] U4Ü[0] U5[7] U6K[0] U6[9] U7K[0] U7[0]
!! N1[24] N2K[0] N2[13] N3K[0] N3[22] N4[20] N4Ü[0] N5[4] N6K[0] N6[0]
!!!n7k: 0] N7[0] O1[0] O2K[0] O2[0] O3K[0] O3[0] HÖ[0
